src/icons/solid/ai/bot.svg

<svg width="24" height="24" viewBox="0 0 24 24" fill="none" xmlns="http://www.w3.org/2000/svg">
<g clip-path="url(#clip0_6406_1084)">
<path d="M17.5984 7.61666H12.8531V3.84391C12.8531 3.37728 12.4796 3 12.005 3C11.5305 3 11.1469 3.37728 11.1469 3.84391V7.61666H6.41166C1.06058 7.61666 1 11.7865 1 11.8263V16.7805C1 20.1164 4.53373 21 6.41166 21H17.5984C22.9394 21 23 16.8202 23 16.7805V11.8263C23 8.49035 19.4663 7.61666 17.5984 7.61666ZM16.7201 13.6531V14.9735C16.7201 15.5295 16.2758 15.9664 15.7104 15.9664C15.145 15.9664 14.7008 15.5295 14.7008 14.9735V13.6531C14.7008 13.0971 15.1551 12.6602 15.7104 12.6602C16.2657 12.6602 16.7201 13.0971 16.7201 13.6531ZM9.29922 13.6531V14.9735C9.29922 15.5295 8.84488 15.9664 8.28958 15.9664C7.73428 15.9664 7.27995 15.5295 7.27995 14.9735V13.6531C7.27995 13.0971 7.72419 12.6602 8.28958 12.6602C8.85498 12.6602 9.29922 13.0971 9.29922 13.6531Z" fill="#3C3B44"/>
</g>
<defs>
<clipPath id="clip0_6406_1084">
<rect width="24" height="24" fill="white"/>
</clipPath>
</defs>
</svg>

<svg xmlns="http://www.w3.org/2000/svg" width="24" height="24" fill="none" viewBox="0 0 24 24"><g clip-path="url(#a)"><path fill="currentColor" d="M17.598 7.617h-4.745V3.844A.84.84 0 0 0 12.005 3a.85.85 0 0 0-.858.844v3.773H6.412C1.06 7.617 1 11.787 1 11.827v4.954C1 20.116 4.534 21 6.412 21h11.186C22.94 21 23 16.82 23 16.78v-4.954c0-3.336-3.534-4.21-5.402-4.21m-.878 6.036v1.32a.99.99 0 0 1-1.01.993.99.99 0 0 1-1.01-.992v-1.32a1 1 0 0 1 1.01-.994 1 1 0 0 1 1.01.993m-7.42 0v1.32a1 1 0 0 1-1.01.993 1 1 0 0 1-1.01-.992v-1.32a.99.99 0 0 1 1.01-.994.99.99 0 0 1 1.01.993"/></g><defs><clipPath id="a"><path fill="currentColor" d="M0 0h24v24H0z"/></clipPath></defs></svg>
